src/assets/icons/real-estate/umbrella.svg

<svg width="48" height="48" viewBox="0 0 48 48" fill="none" xmlns="http://www.w3.org/2000/svg">
<rect width="48" height="48" fill="white"/>
<path fill-rule="evenodd" clip-rule="evenodd" d="M32.851 34.0249L29.5343 31.0437H32.9646H33.0791L36.3948 34.0249H32.851ZM31.1092 25.0811L31.7786 29.0561H27.9302L27.1483 25.0811H31.1092ZM39.9879 34.9611C39.99 34.9809 40 34.9978 40 35.0187V37.0062C40 37.5558 39.5507 38 38.9949 38C38.4401 38 37.9899 37.5558 37.9899 37.0062V36.0125H33.4671V37.0062C33.4671 37.5558 33.0178 38 32.462 38C31.9072 38 31.457 37.5558 31.457 37.0062V35.4589L27.9393 32.2968V33.0312C27.9393 33.5807 27.49 34.0249 26.9342 34.0249C26.3794 34.0249 25.9291 33.5807 25.9291 33.0312V30.0499C25.9291 30.04 25.9342 30.033 25.9342 30.0251C25.9372 29.9118 25.9553 29.8005 25.9975 29.6921C25.9995 29.6872 26.0035 29.6832 26.0045 29.6772L24.9432 24.2771C24.8849 23.985 24.9623 23.6848 25.1542 23.4553C25.3442 23.2267 25.6286 23.0936 25.9291 23.0936H31.9595C32.452 23.0936 32.8711 23.4453 32.9515 23.9243L33.8279 29.1217C33.9425 29.1664 34.05 29.231 34.1435 29.3145L39.6713 34.2833C39.7668 34.3688 39.8342 34.4721 39.8894 34.5824C39.9045 34.6133 39.9146 34.6431 39.9266 34.6739C39.9618 34.7673 39.9819 34.8627 39.9879 34.9611ZM21.9685 33.1256C24.2289 33.5122 25.9294 35.1032 25.9294 37.0062C25.9294 37.5558 25.4802 38 24.9244 38H16.8839C16.3281 38 15.8788 37.5558 15.8788 37.0062C15.8788 35.0614 17.6568 33.4446 19.9925 33.1037C19.9905 33.0789 19.9774 33.057 19.9774 33.0312V19.2994H15.7311H15.7301H15.7291H9.0082H9.00519C8.66548 19.2994 8.34888 19.1294 8.16294 18.8482C7.97701 18.565 7.94786 18.2082 8.08756 17.9001C10.563 12.4106 15.5039 9 20.9825 9C20.9956 9 21.0076 9.00199 21.0197 9.00199C21.0247 9.00199 21.0298 9 21.0348 9C21.0468 9 21.0579 9.00298 21.07 9.00397C26.5124 9.03975 31.4151 12.4394 33.8775 17.8992C34.0162 18.2072 33.989 18.562 33.8031 18.8452C33.6172 19.1274 33.3006 19.2984 32.9598 19.2984H26.24C26.238 19.2984 26.237 19.2994 26.236 19.2994C26.235 19.2994 26.234 19.2984 26.232 19.2984L21.9876 19.2994V33.0312C21.9876 33.064 21.9715 33.0928 21.9685 33.1256ZM18.307 36.0125H23.5012C22.9715 35.4232 21.9936 35.0187 20.9041 35.0187C19.8146 35.0187 18.8367 35.4232 18.307 36.0125ZM16.8266 11.8213C14.327 12.8339 12.149 14.73 10.6434 17.3108H14.7752C14.9732 15.2299 15.7693 13.298 16.8266 11.8213ZM31.3216 17.3108C29.8251 14.7459 27.6652 12.8548 25.1847 11.8382C26.2189 13.3119 26.9968 15.2369 27.1908 17.3108H31.3216ZM21.0167 10.9895C19.8297 11.0144 17.2135 13.621 16.7974 17.3108H25.1696C24.7676 13.6558 22.261 11.067 21.088 10.9955C21.0629 10.9945 21.0408 10.9895 21.0167 10.9895Z" fill="#253238"/>
</svg>

<svg width="48" height="48" viewBox="0 0 48 48" fill="none" xmlns="http://www.w3.org/2000/svg"><path fill-rule="evenodd" clip-rule="evenodd" d="M32.851 34.025l-3.317-2.981H33.08l3.316 2.98H32.85zm-1.742-8.944l.67 3.975H27.93l-.782-3.975h3.961zm8.879 9.88c.002.02.012.037.012.058v1.987c0 .55-.45.994-1.005.994a1 1 0 01-1.005-.994v-.993h-4.523v.993c0 .55-.45.994-1.005.994a1 1 0 01-1.005-.994V35.46l-3.518-3.162v.734c0 .55-.449.994-1.005.994a1 1 0 01-1.005-.994V30.05c0-.01.005-.017.005-.025a.979.979 0 01.063-.333c.003-.005.006-.009.008-.015l-1.062-5.4a.979.979 0 01.211-.822c.19-.228.475-.361.775-.361h6.03c.493 0 .912.351.993.83l.876 5.198c.114.044.222.109.316.192l5.527 4.97a.977.977 0 01.218.298c.015.031.026.061.038.092a.977.977 0 01.06.287zm-18.02-1.835c2.26.386 3.961 1.977 3.961 3.88 0 .55-.449.994-1.005.994h-8.04a.999.999 0 01-1.005-.994c0-1.945 1.778-3.561 4.114-3.902-.002-.025-.016-.047-.016-.073V19.3H9.005c-.34 0-.656-.17-.842-.45a.985.985 0 01-.075-.949C10.563 12.41 15.504 9 20.983 9l.037.002.015-.002c.012 0 .023.003.035.004 5.442.036 10.345 3.435 12.807 8.895a.983.983 0 01-.074.946 1.01 1.01 0 01-.843.453h-6.72l-.004.001H21.988v13.732c0 .033-.017.062-.02.095zm-3.661 2.887h5.194c-.53-.59-1.507-.994-2.597-.994s-2.067.404-2.597.994zm-1.48-24.192c-2.5 1.013-4.678 2.909-6.184 5.49h4.132a11.44 11.44 0 012.052-5.49zm14.495 5.49c-1.497-2.565-3.657-4.456-6.137-5.473a11.55 11.55 0 012.006 5.473h4.13zm-10.305-6.322c-1.187.025-3.803 2.632-4.22 6.322h8.373c-.402-3.655-2.909-6.244-4.082-6.316-.025 0-.047-.005-.071-.005z" fill="#253238"/></svg>
